azure-patterns/svg-four-points-connected.svg

<svg xmlns="http://www.w3.org/2000/svg" viewBox="0 0 49 49">
                                
                            
    <path d="M47.3376 21.3284C45.524 19.54 42.6983 19.3966 40.7329 20.8982L28.8815 9.0205C30.383 7.02964 30.2227 4.18675 28.4007 2.38992C26.4185 0.432798 23.2216 0.44967 21.2562 2.4321C19.4174 4.28798 19.3161 7.21522 20.9441 9.18921L5.13672 25.0486L25.2207 44.7042L40.8763 29.0388C42.8585 30.4476 45.6252 30.2535 47.3882 28.4651C49.3451 26.4911 49.3282 23.2855 47.3376 21.3284ZM25.2038 42.9326L6.9334 25.0402L21.872 10.0581C22.5974 10.5896 23.4325 10.9017 24.2928 10.9945V41.701H25.5581V10.9861C26.4269 10.8595 27.2789 10.5136 28.0043 9.93157L39.8303 21.7924C38.3373 23.6736 38.3795 26.3562 39.94 28.1952L25.2038 42.9326Z" fill="#0078D4"></path>
    <path d="M28.4015 40.2642C30.3838 42.2213 30.4006 45.4269 28.4437 47.4094C26.4867 49.3918 23.2814 49.4087 21.2992 47.4515C19.3169 45.4944 19.3 42.2888 21.257 40.3064C23.2224 38.324 26.4193 38.2986 28.4015 40.2642Z" fill="#50E6FF"></path>
    <path d="M9.50619 28.4726C7.54924 30.455 4.3439 30.4719 2.36165 28.5148C0.3794 26.5576 0.36253 23.352 2.31947 21.3696C4.27642 19.3872 7.48176 19.3703 9.46401 21.3274C11.4547 23.2845 11.4716 26.4902 9.50619 28.4726Z" fill="#50E6FF"></path>
</svg>

<svg xmlns="http://www.w3.org/2000/svg" viewBox="0 0 49 49"><path d="M47.338 21.328a5.052 5.052 0 0 0-6.605-.43L28.882 9.021c1.501-1.991 1.34-4.834-.481-6.631a5.058 5.058 0 0 0-7.145.042 5.047 5.047 0 0 0-.312 6.757L5.137 25.05 25.22 44.704 40.876 29.04a5.046 5.046 0 0 0 6.512-.574 5.041 5.041 0 0 0-.05-7.137zM25.204 42.933L6.934 25.04l14.938-14.982a4.99 4.99 0 0 0 2.42.937V41.7h1.266V10.986a5.068 5.068 0 0 0 2.446-1.054l11.826 11.86a5.049 5.049 0 0 0 .11 6.403L25.204 42.933z" fill="#0078D4"/><path d="M28.401 40.264a5.059 5.059 0 0 1 .043 7.145 5.058 5.058 0 0 1-7.145.043 5.059 5.059 0 0 1-.042-7.146c1.965-1.982 5.162-2.007 7.144-.042zM9.506 28.473a5.058 5.058 0 0 1-7.144.042 5.059 5.059 0 0 1-.043-7.145 5.058 5.058 0 0 1 7.145-.043 5.044 5.044 0 0 1 .042 7.146z" fill="#50E6FF"/></svg>
